src/assets/icons/task-checkbox.svg

<svg width="24" height="24" viewBox="0 0 24 24" fill="none" xmlns="http://www.w3.org/2000/svg">
<path d="M16.4004 4.25C16.6679 4.25 16.9139 4.24991 17.1182 4.2666C17.3312 4.28403 17.5647 4.32314 17.7949 4.44043C18.124 4.60818 18.3918 4.87597 18.5596 5.20508C18.6769 5.43526 18.716 5.66879 18.7334 5.88184C18.7501 6.08611 18.75 6.33211 18.75 6.59961V17.4004C18.75 17.6679 18.7501 17.9139 18.7334 18.1182C18.716 18.3312 18.6769 18.5647 18.5596 18.7949C18.3918 19.124 18.124 19.3918 17.7949 19.5596C17.5647 19.6769 17.3312 19.716 17.1182 19.7334C16.9139 19.7501 16.6679 19.75 16.4004 19.75H7.59961C7.33211 19.75 7.08611 19.7501 6.88184 19.7334C6.66879 19.716 6.43526 19.6769 6.20508 19.5596C5.87597 19.3918 5.60818 19.124 5.44043 18.7949C5.32314 18.5647 5.28403 18.3312 5.2666 18.1182C5.24991 17.9139 5.25 17.6679 5.25 17.4004V6.59961L5.25195 6.21777C5.25389 6.09715 5.25824 5.98415 5.2666 5.88184C5.28403 5.66879 5.32314 5.43526 5.44043 5.20508C5.60818 4.87597 5.87597 4.60818 6.20508 4.44043C6.43526 4.32314 6.66879 4.28403 6.88184 4.2666C7.08611 4.24991 7.33211 4.25 7.59961 4.25H16.4004Z" stroke="#314158" stroke-width="1.5" stroke-linecap="round" stroke-linejoin="round"/>
<path d="M9.4 3.28571C9.4 3.61709 9.66863 3.88571 10 3.88571C10.3314 3.88571 10.6 3.61709 10.6 3.28571H10H9.4ZM8 5H8.6V3H8H7.4V5H8ZM10 3H9.4V3.28571H10H10.6V3H10ZM8 5.26393H8.6V5H8H7.4V5.26393H8ZM10 5.26393H10.6V5H10H9.4V5.26393H10ZM9.89443 5.71115L10.4311 5.97947C10.5422 5.75731 10.6 5.51232 10.6 5.26393H10H9.4C9.4 5.32603 9.38554 5.38728 9.35777 5.44282L9.89443 5.71115ZM9 2V2.6C9.22091 2.6 9.4 2.77909 9.4 3H10H10.6C10.6 2.11634 9.88366 1.4 9 1.4V2ZM9.89443 5.71115L9.35777 5.44282C9.16901 5.82034 8.6 5.68602 8.6 5.26393H8H7.4C7.4 6.95229 9.67603 7.48959 10.4311 5.97947L9.89443 5.71115ZM9 2V1.4C8.11634 1.4 7.4 2.11634 7.4 3H8H8.6C8.6 2.77909 8.77909 2.6 9 2.6V2Z" fill="#314158"/>
<path d="M9 9H15" stroke="#314158" stroke-width="1.5" stroke-linecap="round"/>
<circle cx="12" cy="14" r="2.75" stroke="#314158" stroke-width="1.5" stroke-linecap="round"/>
<path d="M10.5859 12.5859L11.7073 13.7073C11.8948 13.8948 12.1491 14.0002 12.4144 14.0002H14.0002" stroke="#314158" stroke-width="1.5" stroke-linecap="round"/>
</svg>

<svg fill="none" viewBox="0 0 24 24"><path stroke="currentColor" stroke-linecap="round" stroke-linejoin="round" stroke-width="1.5" d="M16.4 4.25c.268 0 .514 0 .718.017.213.017.447.056.677.173.329.168.597.436.765.765.117.23.156.464.173.677.017.204.017.45.017.718v10.8c0 .268 0 .514-.017.718a1.8 1.8 0 0 1-.173.677c-.168.329-.436.597-.765.765-.23.117-.464.156-.677.173-.204.017-.45.017-.718.017H7.6c-.268 0-.514 0-.718-.017a1.8 1.8 0 0 1-.677-.173 1.75 1.75 0 0 1-.765-.765 1.8 1.8 0 0 1-.173-.677c-.017-.204-.017-.45-.017-.718V6.6l.002-.382q.002-.181.015-.336c.017-.213.056-.447.173-.677a1.75 1.75 0 0 1 .765-.765c.23-.117.464-.156.677-.173.204-.017.45-.017.718-.017z"/><path fill="currentColor" d="M9.4 3.286a.6.6 0 1 0 1.2 0H9.4M8 5h.6V3H7.4v2zm2-2h-.6v.286h1.2V3zM8 5.264h.6V5H7.4v.264zm2 0h.6V5H9.4v.264zm-.106.447.537.268a1.6 1.6 0 0 0 .169-.715H9.4a.4.4 0 0 1-.042.179zM9 2v.6c.22 0 .4.18.4.4h1.2A1.6 1.6 0 0 0 9 1.4zm.894 3.711-.536-.268c-.189.377-.758.243-.758-.18H7.4c0 1.69 2.276 2.227 3.031.716zM9 2v-.6A1.6 1.6 0 0 0 7.4 3h1.2c0-.22.18-.4.4-.4z"/><path stroke="currentColor" stroke-linecap="round" stroke-width="1.5" d="M9 9h6"/><circle cx="12" cy="14" r="2.75" stroke="currentColor" stroke-linecap="round" stroke-width="1.5"/><path stroke="currentColor" stroke-linecap="round" stroke-width="1.5" d="m10.586 12.586 1.121 1.121a1 1 0 0 0 .707.293H14"/></svg>
